Numix-GalliumOS/16/mimetypes/application-info.svg

<?xml version="1.0" encoding="UTF-8" standalone="no"?>
<svg
   xmlns:dc="http://purl.org/dc/elements/1.1/"
   xmlns:cc="http://creativecommons.org/ns#"
   xmlns:rdf="http://www.w3.org/1999/02/22-rdf-syntax-ns#"
   xmlns:svg="http://www.w3.org/2000/svg"
   xmlns="http://www.w3.org/2000/svg"
   xmlns:sodipodi="http://sodipodi.sourceforge.net/DTD/sodipodi-0.dtd"
   xmlns:inkscape="http://www.inkscape.org/namespaces/inkscape"
   width="16"
   height="16"
   viewBox="0 0 16 16"
   id="svg2"
   version="1.1"
   inkscape:version="0.48.5 r10040"
   sodipodi:docname="application-info.svg">
  <metadata
     id="metadata16">
    <rdf:RDF>
      <cc:Work
         rdf:about="">
        <dc:format>image/svg+xml</dc:format>
        <dc:type
           rdf:resource="http://purl.org/dc/dcmitype/StillImage" />
      </cc:Work>
    </rdf:RDF>
  </metadata>
  <defs
     id="defs14" />
  <sodipodi:namedview
     pagecolor="#ffffff"
     bordercolor="#666666"
     borderopacity="1"
     objecttolerance="10"
     gridtolerance="10"
     guidetolerance="10"
     inkscape:pageopacity="0"
     inkscape:pageshadow="2"
     inkscape:window-width="1280"
     inkscape:window-height="970"
     id="namedview12"
     showgrid="true"
     inkscape:zoom="29.5"
     inkscape:cx="11.325767"
     inkscape:cy="5.3927244"
     inkscape:window-x="0"
     inkscape:window-y="0"
     inkscape:window-maximized="1"
     inkscape:current-layer="svg2">
    <inkscape:grid
       type="xygrid"
       id="grid2993" />
  </sodipodi:namedview>
  <path
     style="fill:#4a80d6;fill-opacity:1"
     d="M 2.667969,-4.462e-4 C 2.324219,-4.462e-4 2,0.3378118 2,0.6964465 L 2,15.303108 C 2,15.641365 2.34375,16 2.667969,16 l 10.664062,0 C 13.65625,16 14,15.641365 14,15.303108 L 14,3.9995536 10,-4.462e-4 z"
     id="path4-8"
     inkscape:connector-curvature="0"
     sodipodi:nodetypes="ssssssccs" />
  <path
     style="fill:#ffffff"
     d="M 5.7616458,6 C 5.344063,6 5.0099971,6.3340659 5.0099971,6.7516487 l 0,4.5010993 C 5.0099971,11.665934 5.344063,12 5.7616458,12 l 4.5010992,0 c 0.417582,0 0.751648,-0.334066 0.751648,-0.747252 l 0,-4.5010993 C 11.014393,6.3340659 10.680327,6 10.262745,6 z m 1.8769234,0.7516487 1.1252748,0 0,1.1252747 -1.1252748,0 z m -0.3780225,1.4989009 1.5032973,0 0,2.2505494 0.3736261,0 0,0.751649 -1.8769234,0 0,-0.751649 0.3780225,0 0,-1.4989008 -0.3780225,0 z"
     id="path10"
     inkscape:connector-curvature="0" />
  <path
     style="fill:#000000;fill-opacity:0.19599998"
     d="m 10.583223,3.3315846 0.0154,0.01953 0.04005,-0.01953 z m 0.02978,0.667969 3.387,3.664062 0,-3.664062 z"
     id="path6"
     inkscape:connector-curvature="0"
     sodipodi:nodetypes="cccccccc" />
  <path
     style="fill:#ffffff;fill-opacity:0.39200003"
     d="m 10,-4.462e-4 3.996396,3.9999998 -3.383784,0 C 10.313513,3.9995536 10,3.6824366 10,3.3833376 z"
     id="path8"
     inkscape:connector-curvature="0"
     sodipodi:nodetypes="ccssc" />
</svg>

<svg xmlns="http://www.w3.org/2000/svg" viewBox="0 0 16 16">
 <path d="m 2.668 0 c -0.344 0 -0.668 0.338 -0.668 0.697 l 0 14.607 c 0 0.338 0.344 0.697 0.668 0.697 l 10.664 0 c 0.324 0 0.668 -0.359 0.668 -0.697 l 0 -11.304 -4 -4 z" style="fill:#4a80d6;fill-opacity:1"/>
 <path d="m 5.762 6 c -0.418 0 -0.752 0.334 -0.752 0.752 l 0 4.501 c 0 0.413 0.334 0.747 0.752 0.747 l 4.501 0 c 0.418 0 0.752 -0.334 0.752 -0.747 l 0 -4.501 c 0 -0.418 -0.334 -0.752 -0.752 -0.752 z m 1.877 0.752 1.125 0 0 1.125 -1.125 0 z m -0.378 1.499 1.503 0 0 2.251 0.374 0 0 0.752 -1.877 0 0 -0.752 0.378 0 0 -1.499 -0.378 0 z" style="fill:#fff"/>
 <path d="m 10.583 3.332 0.015 0.02 0.04 -0.02 z m 0.03 0.668 3.387 3.664 0 -3.664 z" style="fill:#000;fill-opacity:0.196"/>
 <path d="m 10 0 3.996 4 -3.384 0 c -0.299 0 -0.613 -0.317 -0.613 -0.616 z" style="fill:#fff;fill-opacity:0.392"/>
</svg>
